X:2
T:Mazurka des Escholiers de Saint-Gen\^et
G:Kazimodal
R:Mazurka
C:Escholiers de Saint-Gen\^et, arrangement Laurent Daverio & http://kazimodal.trad.org
Q:C3=110
P:C5
M:9/8
S:Escholiers de Saint-Gen\^et
K:Em
P:C
%%%MIDI gchord c3fc2z2f3f
%%MIDI gchord fzc2cz
%%MIDI chordprog 41
%%MIDI chordvol 40
%%MIDI bassprog 43
%%MIDI bassvol 127
V:1
%%MIDI program 75
|: "Em"B3 B2c d2e | "CM7"B6 c2B |\
"D"A3 B3/2A3/2 G3/2A3/2 | "Em"B2c B3/2A3/2 G3/2A3/2 |
B3 B2c d2e | "C"B6 c2B | "D"A3 B3/2A3/2 G2F |1 "Em"E6 E3 :|2 "Em"E6 e3/2d3/2 |
|: "Am"c3 c2B "Bm"c2d | "C"e3 e3/2d3/2 "D"d3/2c3/2 |\
"Em"B3 B3/2"D"A3/2 B2c | "Em"B3 B3 e3/2d3/2 |
"Am"c3 c2B "Bm"c2d | "C"e3 e3/2d3/2 "D"d3/2c3/2 |\
"Em"B3 A3/2G3/2 "D"F2G |1 F3 "Em"E3 e3/2d3/2 :|2\
F3 "Em"E3 E3 ||
V:2
%%%MIDI transpose 12
%%MIDI program 69
|: B3 B2c dcB | G3/2C3/2 G2B A2G |\
A3/2D3/2 F3/2G3/2 A3/2B3/2 | g2f e3/2d3/2 B3/2G3/2 |
B3 B2c dcB | c3 c2B c2B | A3 D3/2F3/2 G2F |1 G6 E3 :|2 G6 e3/2d3/2 |
|: c3 c2B cde | g3 g3/2a3/2 g3/2f3/2 |\
B3 B3/2A3/2 G2A | B6 e3/2d3/2 |
c3 c2B cde | g3 g3/2f3/2 e3/2d3/2 |\
B3 A3/2G3/2 F2G |1 F3 E3 e3/2d3/2 :|2\
F3 E3 E3 ||
V:3
%%MIDI program 43
%%MIDI transpose -12
|: G3 B2A G2F | G3 B3 A2G |\
F3 G3/2F3/2 E3/2F3/2 | G3-G3/2 F3/2 E3/2F3/2  |
G3/2A3/2 B2A G2F | G3-G3/2 F3/2 E3 | F3 E3 D3 |1\
 E3/2F3/2 G3 E3 :|2 E3/2F3/2 G3 F3/2G3/2 |
|: A3 A2G A2B | c6 B3/2A3/2 |\
G3 G3/2F3/2 G2A | G3/2F3/2 G3/2E3/2 F3/2G3/2 |
A3 A2G A2B | c6 B3/2A3/2 |\
G9/2 F3/2 E3/2F3/2 |1 D3 E3 F3/2G3/2 :|2\
D3 E3 E3 ||
